X:1
T:Title
%%score { ( 1 3 4 ) | ( 2 5 ) }
L:1/8
M:4/4
K:Eb
V:1 treble nm="Grand Piano"
V:3 treble 
V:4 treble 
V:2 bass 
V:5 bass 
V:1
 z4 z2[Q:1/4=100] B2 | B4 z4 | G4 z4 | c2 c2 B2 A2 |[M:3/4] G4 F2 |[M:1/4] [FG]2 | %6
[M:4/4] [Ee]3 [Gd] [Gc]2 [GB]2 | A3 G F2 F2 | z4 z2 c2 |[M:3/4] B6 |[M:1/4] B2 | %11
[M:4/4] [Ge]3 [Gd] [Gc][GB][FA][B,EG] | F6 z2 | [FAd]3 [EAc] [DGB]2 [DFA]2 | G6 z2 | z2 z G A2 F2 | %16
[M:9/8] B2 _d- d c2- c e2 |[M:4/4] B3 [GB] c2 B2 |[M:3/4] [Ge]6 |] %19
V:2
 z4 z2 [E,G,E]2 | [G,B,E]2 [B,,B,]2 [E,B,E]2 [G,B,E]2 | B,3 B, [E,G,]2 [G,B,]2 | %3
 [A,E]2 [A,E]2 [G,B,D]2 [F,B,D]2 |[M:3/4] [E,B,E]4 [D,=B,]2 |[M:1/4] [D,B,]2 | %6
[M:4/4] [C,C]3 [D,=B,] [E,C]2 [=E,C]2 | [F,CF]3 [G,C=E] [A,C]2 [A,C]2 | %8
 [B,CE]2 [F,CE]2 [F,B,F]2 .[F,B,E]2 |[M:3/4] F,2 G,2 A,2 |[M:1/4] [B,A]2 | %11
[M:4/4] [E,B,]3 [E,B,] [E,C][E,E][E,E]E, | z2 ED C2 A,2 | B,,3 B,, B,,2 B,,2 | E,6 [G,B,]2 | %15
 [E,B,E]2 [E,B,]2 [F,B,D]2 [A,B,D]2 |[M:9/8] [G,B,E]2 [G,B,E]- [G,B,E] [A,E]2- [A,E] [_G,=A,E]2 | %17
[M:4/4] [G,B,E]3 [E,E][K:treble] [B,DA]2 [B,A]2 |[M:3/4][K:bass] [E,B,]6 |] %19
V:3
 x8 | z2 z A G2 G2 | z2 z F E2 E2 | x8 |[M:3/4] x6 |[M:1/4] x2 |[M:4/4] x8 | x8 | F2 =A2 d2 z F, | %9
[M:3/4] D2 E2 F2 |[M:1/4] x2 |[M:4/4] x8 | C2 z2 z2 [CFA]2 | x8 | E2 DC B,2 E2 | G4 z4 | %16
[M:9/8] x9 |[M:4/4] x8 |[M:3/4] x6 |] %19
V:4
 x8 | z2 D2 z4 | z2 D2 z4 | x8 |[M:3/4] x6 |[M:1/4] x2 |[M:4/4] x8 | x8 | x8 |[M:3/4] x6 | %10
[M:1/4] x2 |[M:4/4] x8 | x8 | x8 | x8 | z2 E2 z4 |[M:9/8] x9 |[M:4/4] x8 |[M:3/4] x6 |] %19
V:5
 x8 | x8 | E2 B,,2 z4 | x8 |[M:3/4] x6 |[M:1/4] x2 |[M:4/4] x8 | x8 | x8 |[M:3/4] B,,6 | %10
[M:1/4] x2 |[M:4/4] x8 | A,6 z2 | x8 | x8 | x8 |[M:9/8] x9 |[M:4/4] x4[K:treble] x4 | %18
[M:3/4][K:bass] x6 |] %19

